src/assets/svg/game-logo.svg

<svg width="72" height="46" viewBox="0 0 72 46" fill="none" xmlns="http://www.w3.org/2000/svg">
<path d="M37.9963 41.0007C56.1545 38.9856 69.9802 29.2933 68.877 19.3525C67.7738 9.41161 52.1594 2.98653 34.0013 5.00167C15.8431 7.0168 2.01737 16.7091 3.12058 26.6499C4.22379 36.5908 19.8382 43.0159 37.9963 41.0007Z" stroke="#E0321A" stroke-width="2" stroke-miterlimit="10"/>
<path d="M15.9202 32.69C15.7702 32.69 15.6102 32.69 15.4502 32.68L14.7002 32.63C12.1802 32.35 10.2402 31.42 8.88025 29.88C7.50025 28.31 6.93025 26.3 7.18025 23.91L8.86025 8.98999L13.5102 9.50999L11.8402 24.33C11.7002 25.54 11.9102 26.48 12.4602 27.18C13.0102 27.88 13.8902 28.29 15.1302 28.43C15.3802 28.46 15.6302 28.47 15.8602 28.47C16.7702 28.47 17.4802 28.26 18.0302 27.81C18.7202 27.25 19.1302 26.39 19.2602 25.18L20.9302 10.34L25.6202 10.87L23.9502 25.75C23.6902 27.94 22.7802 29.68 21.2402 30.94C19.8202 32.1 18.0302 32.69 15.9202 32.69Z" fill="#FFD037"/>
<path d="M9.74021 10.0899L12.4002 10.3899L10.8402 24.2199C10.6702 25.6999 10.9502 26.8899 11.6702 27.7999C12.3902 28.7099 13.5002 29.2499 15.0102 29.4199C15.3002 29.4499 15.5802 29.4699 15.8502 29.4699C16.9902 29.4699 17.9202 29.1799 18.6402 28.5899C19.5402 27.8699 20.0702 26.7699 20.2402 25.2899L21.8002 11.4499L24.5102 11.7499L22.9502 25.6399C22.7202 27.5699 21.9402 29.0699 20.6002 30.1599C19.3502 31.1699 17.7902 31.6799 15.9102 31.6799C15.7702 31.6799 15.6302 31.6799 15.4802 31.6699L14.7602 31.6199C12.5202 31.3699 10.8102 30.5599 9.62021 29.2099C8.43021 27.8499 7.94021 26.1199 8.16021 23.9999L9.74021 10.0899ZM7.98021 7.87988L7.76021 9.86989L6.19021 23.7799C5.91021 26.4799 6.56021 28.7399 8.13021 30.5299C9.66021 32.2599 11.8202 33.2999 14.5502 33.6099H14.5902H14.6302L15.3502 33.6599H15.3802H15.4102C15.5802 33.6699 15.7502 33.6699 15.9202 33.6699C18.2602 33.6699 20.2702 33.0099 21.8702 31.6999C23.6202 30.2799 24.6502 28.3099 24.9402 25.8599L26.5002 11.9599L26.7202 9.96989L24.7302 9.74989L22.0202 9.44988L20.0302 9.22989L19.8102 11.2199L18.2502 25.0599C18.1402 25.9999 17.8602 26.6399 17.3902 27.0199C17.0202 27.3099 16.5202 27.4599 15.8502 27.4599C15.6602 27.4599 15.4502 27.4499 15.2302 27.4199C14.2702 27.3099 13.6102 27.0299 13.2302 26.5499C12.8502 26.0699 12.7102 25.3799 12.8202 24.4399L14.3802 10.6099L14.6002 8.61989L12.6102 8.39989L9.95021 8.09988L7.98021 7.87988Z" fill="#282525"/>
<path d="M38.8104 35.0499L31.5704 20.6799L30.0604 34.0699L25.3704 33.5399L27.8904 11.1299L32.1304 11.6099L39.3904 26.0499L40.9104 12.5999L45.5704 13.1199L43.0504 35.5299L38.8104 35.0499Z" fill="#FFD037"/>
<path d="M28.7703 12.2398L31.4803 12.5398L40.0103 29.5098L41.7903 13.6998L44.4703 13.9998L42.1703 34.4198L39.4603 34.1198L30.9503 17.2298L29.1803 32.9698L26.4703 32.6698L28.7703 12.2398ZM27.0103 10.0298L26.7903 12.0198L24.4903 32.4398L24.2703 34.4298L26.2603 34.6498L28.9703 34.9498L30.9603 35.1698L31.1803 33.1798L32.2003 24.1198L37.6903 35.0098L38.1803 35.9798L39.2603 36.0998L41.9703 36.3998L43.9603 36.6198L44.1803 34.6298L46.4803 14.2098L46.7003 12.2198L44.7103 11.9998L42.0303 11.6998L40.0403 11.4798L39.8203 13.4698L38.7903 22.5898L33.2803 11.6298L32.7903 10.6598L31.7103 10.5398L29.0003 10.2498L27.0103 10.0298Z" fill="#282525"/>
<path d="M55.5202 37.1498C55.1302 37.1498 54.7302 37.1298 54.3302 37.0798C52.5402 36.8798 50.9702 36.2498 49.6702 35.1998C48.3702 34.1498 47.4202 32.7498 46.8302 31.0398C46.2602 29.3698 46.0802 27.4798 46.3002 25.4098L46.4702 23.9298C46.7102 21.8398 47.2902 19.9898 48.2102 18.4398C49.1602 16.8498 50.4002 15.6698 51.9102 14.9198C53.0902 14.3398 54.3802 14.0398 55.7502 14.0398C56.1202 14.0398 56.5002 14.0598 56.8802 14.0998C58.7002 14.3098 60.2802 14.9398 61.5902 15.9898C62.9002 17.0398 63.8502 18.4698 64.4102 20.2298C64.9602 21.9298 65.1102 23.8798 64.8702 25.9998L64.7202 27.2898C64.4802 29.4198 63.9002 31.2798 62.9902 32.8098C62.0502 34.3898 60.8202 35.5598 59.3202 36.2898C58.1702 36.8598 56.8902 37.1498 55.5202 37.1498ZM55.8202 18.3798C54.7002 18.3798 53.7802 18.7798 53.0002 19.5998C52.0302 20.6198 51.4102 22.1898 51.1502 24.2598L50.9802 25.7498C50.7402 27.8698 50.9902 29.5798 51.7102 30.8398C52.3802 32.0098 53.4002 32.6598 54.8002 32.8198C55.0102 32.8398 55.2202 32.8598 55.4202 32.8598C56.5502 32.8598 57.4602 32.4798 58.2102 31.6798C59.1502 30.6798 59.7602 29.0998 60.0302 26.9598L60.2002 25.4598C60.4502 23.2698 60.2102 21.5498 59.5002 20.3398C58.8402 19.2098 57.8202 18.5798 56.3902 18.4198C56.2002 18.3898 56.0102 18.3798 55.8202 18.3798Z" fill="#FFD037"/>
<path d="M55.7502 15.0398C56.0802 15.0398 56.4202 15.0598 56.7702 15.0998C58.4102 15.2798 59.8002 15.8398 60.9602 16.7698C62.1202 17.6998 62.9502 18.9498 63.4602 20.5298C63.9602 22.1098 64.1002 23.8898 63.8802 25.8798L63.7302 27.1698C63.5002 29.1698 62.9702 30.8798 62.1302 32.2998C61.2902 33.7198 60.2102 34.7498 58.8802 35.3898C57.8502 35.8898 56.7302 36.1398 55.5002 36.1398C55.1502 36.1398 54.7902 36.1198 54.4202 36.0798C52.8102 35.8998 51.4302 35.3398 50.2802 34.4098C49.1302 33.4798 48.2902 32.2398 47.7602 30.6998C47.2402 29.1598 47.0702 27.4298 47.2702 25.4998L47.4402 24.0298C47.6602 22.0698 48.2002 20.3698 49.0502 18.9398C49.9002 17.5098 51.0002 16.4698 52.3402 15.8098C53.4002 15.2998 54.5402 15.0398 55.7502 15.0398ZM55.4302 33.8398C56.8402 33.8398 58.0102 33.3398 58.9502 32.3498C60.0502 31.1898 60.7402 29.4298 61.0402 27.0698L61.2102 25.5598C61.4802 23.1398 61.2102 21.2198 60.3802 19.8198C59.5502 18.4198 58.2702 17.6098 56.5202 17.4198C56.2802 17.3898 56.0502 17.3798 55.8302 17.3798C54.4302 17.3798 53.2502 17.8898 52.2902 18.9098C51.1702 20.0898 50.4602 21.8398 50.1802 24.1298L50.0102 25.6298C49.7502 27.9798 50.0302 29.8798 50.8702 31.3298C51.7102 32.7798 52.9902 33.6098 54.7202 33.7998C54.9502 33.8298 55.1902 33.8398 55.4302 33.8398ZM55.7502 13.0398C54.2302 13.0398 52.7902 13.3698 51.4702 14.0198C49.7902 14.8498 48.4002 16.1598 47.3502 17.9198C46.3502 19.5898 45.7202 21.5698 45.4702 23.8098L45.3002 25.2798C45.0702 27.5098 45.2702 29.5398 45.8802 31.3498C46.5202 33.2498 47.5902 34.7998 49.0402 35.9698C50.4902 37.1398 52.2302 37.8398 54.2202 38.0698C54.6602 38.1198 55.1002 38.1398 55.5202 38.1398C57.0402 38.1398 58.4802 37.8198 59.7802 37.1798C61.4502 36.3598 62.8302 35.0598 63.8702 33.3098C64.8502 31.6498 65.4802 29.6598 65.7402 27.3898L65.8902 26.0998C66.1502 23.8398 65.9802 21.7498 65.3902 19.9098C64.7702 17.9598 63.7102 16.3798 62.2402 15.1998C60.7902 14.0298 59.0302 13.3298 57.0202 13.0998C56.5802 13.0698 56.1602 13.0398 55.7502 13.0398ZM55.4302 31.8398C55.2702 31.8398 55.1002 31.8298 54.9202 31.8098C53.8202 31.6898 53.1002 31.2298 52.5802 30.3298C51.9702 29.2598 51.7602 27.7498 51.9802 25.8498L52.1502 24.3498C52.3802 22.5198 52.9102 21.1398 53.7302 20.2798C54.3202 19.6598 54.9802 19.3698 55.8202 19.3698C55.9702 19.3698 56.1302 19.3798 56.2902 19.3998C57.4202 19.5298 58.1502 19.9698 58.6502 20.8298C59.2502 21.8498 59.4402 23.3598 59.2202 25.3298L59.0502 26.8398C58.8102 28.7398 58.2902 30.1398 57.5002 30.9698C56.9402 31.5698 56.2802 31.8398 55.4302 31.8398Z" fill="#282525"/>
</svg>

<svg width="72" height="46" viewBox="0 0 72 46" fill="none"
  xmlns="http://www.w3.org/2000/svg">
  <path d="M37.996 41c18.158-2.014 31.984-11.707 30.881-21.648-1.103-9.94-16.718-16.365-34.876-14.35C15.843 7.017 2.017 16.709 3.121 26.65 4.224 36.59 19.838 43.016 37.996 41z" stroke="#E0321A" stroke-width="2" stroke-miterlimit="10"/>
  <path d="M15.92 32.69c-.15 0-.31 0-.47-.01l-.75-.05c-2.52-.28-4.46-1.21-5.82-2.75-1.38-1.57-1.95-3.58-1.7-5.97L8.86 8.99l4.65.52-1.67 14.82c-.14 1.21.07 2.15.62 2.85.55.7 1.43 1.11 2.67 1.25.25.03.5.04.73.04.91 0 1.62-.21 2.17-.66.69-.56 1.1-1.42 1.23-2.63l1.67-14.84 4.69.53-1.67 14.88c-.26 2.19-1.17 3.93-2.71 5.19-1.42 1.16-3.21 1.75-5.32 1.75z" fill="#FFD037"/>
  <path d="M9.74 10.09l2.66.3-1.56 13.83c-.17 1.48.11 2.67.83 3.58.72.91 1.83 1.45 3.34 1.62.29.03.57.05.84.05 1.14 0 2.07-.29 2.79-.88.9-.72 1.43-1.82 1.6-3.3l1.56-13.84 2.71.3-1.56 13.89c-.23 1.93-1.01 3.43-2.35 4.52-1.25 1.01-2.81 1.52-4.69 1.52-.14 0-.28 0-.43-.01l-.72-.05c-2.24-.25-3.95-1.06-5.14-2.41-1.19-1.36-1.68-3.09-1.46-5.21l1.58-13.91zM7.98 7.88l-.22 1.99-1.57 13.91c-.28 2.7.37 4.96 1.94 6.75 1.53 1.73 3.69 2.77 6.42 3.08h.08l.72.05h.06c.17.01.34.01.51.01 2.34 0 4.35-.66 5.95-1.97 1.75-1.42 2.78-3.39 3.07-5.84l1.56-13.9.22-1.99-1.99-.22-2.71-.3-1.99-.22-.22 1.99-1.56 13.84c-.11.94-.39 1.58-.86 1.96-.37.29-.87.44-1.54.44-.19 0-.4-.01-.62-.04-.96-.11-1.62-.39-2-.87-.38-.48-.52-1.17-.41-2.11l1.56-13.83.22-1.99-1.99-.22-2.66-.3-1.97-.22z" fill="#282525"/>
  <path d="M38.81 35.05l-7.24-14.37-1.51 13.39-4.69-.53 2.52-22.41 4.24.48 7.26 14.44 1.52-13.45 4.66.52-2.52 22.41-4.24-.48z" fill="#FFD037"/>
  <path d="M28.77 12.24l2.71.3 8.53 16.97 1.78-15.81 2.68.3-2.3 20.42-2.71-.3-8.51-16.89-1.77 15.74-2.71-.3 2.3-20.43zm-1.76-2.21l-.22 1.99-2.3 20.42-.22 1.99 1.99.22 2.71.3 1.99.22.22-1.99 1.02-9.06 5.49 10.89.49.97 1.08.12 2.71.3 1.99.22.22-1.99 2.3-20.42.22-1.99-1.99-.22-2.68-.3-1.99-.22-.22 1.99-1.03 9.12-5.51-10.96-.49-.97-1.08-.12-2.71-.29-1.99-.22z" fill="#282525"/>
  <path d="M55.52 37.15c-.39 0-.79-.02-1.19-.07-1.79-.2-3.36-.83-4.66-1.88-1.3-1.05-2.25-2.45-2.84-4.16-.57-1.67-.75-3.56-.53-5.63l.17-1.48c.24-2.09.82-3.94 1.74-5.49.95-1.59 2.19-2.77 3.7-3.52 1.18-.58 2.47-.88 3.84-.88.37 0 .75.02 1.13.06 1.82.21 3.4.84 4.71 1.89 1.31 1.05 2.26 2.48 2.82 4.24.55 1.7.7 3.65.46 5.77l-.15 1.29c-.24 2.13-.82 3.99-1.73 5.52-.94 1.58-2.17 2.75-3.67 3.48-1.15.57-2.43.86-3.8.86zm.3-18.77c-1.12 0-2.04.4-2.82 1.22-.97 1.02-1.59 2.59-1.85 4.66l-.17 1.49c-.24 2.12.01 3.83.73 5.09.67 1.17 1.69 1.82 3.09 1.98.21.02.42.04.62.04 1.13 0 2.04-.38 2.79-1.18.94-1 1.55-2.58 1.82-4.72l.17-1.5c.25-2.19.01-3.91-.7-5.12-.66-1.13-1.68-1.76-3.11-1.92-.19-.03-.38-.04-.57-.04z" fill="#FFD037"/>
  <path d="M55.75 15.04c.33 0 .67.02 1.02.06 1.64.18 3.03.74 4.19 1.67 1.16.93 1.99 2.18 2.5 3.76.5 1.58.64 3.36.42 5.35l-.15 1.29c-.23 2-.76 3.71-1.6 5.13-.84 1.42-1.92 2.45-3.25 3.09-1.03.5-2.15.75-3.38.75-.35 0-.71-.02-1.08-.06-1.61-.18-2.99-.74-4.14-1.67-1.15-.93-1.99-2.17-2.52-3.71-.52-1.54-.69-3.27-.49-5.2l.17-1.47c.22-1.96.76-3.66 1.61-5.09.85-1.43 1.95-2.47 3.29-3.13 1.06-.51 2.2-.77 3.41-.77zm-.32 18.8c1.41 0 2.58-.5 3.52-1.49 1.1-1.16 1.79-2.92 2.09-5.28l.17-1.51c.27-2.42 0-4.34-.83-5.74-.83-1.4-2.11-2.21-3.86-2.4-.24-.03-.47-.04-.69-.04-1.4 0-2.58.51-3.54 1.53-1.12 1.18-1.83 2.93-2.11 5.22l-.17 1.5c-.26 2.35.02 4.25.86 5.7.84 1.45 2.12 2.28 3.85 2.47.23.03.47.04.71.04zm.32-20.8c-1.52 0-2.96.33-4.28.98-1.68.83-3.07 2.14-4.12 3.9-1 1.67-1.63 3.65-1.88 5.89l-.17 1.47c-.23 2.23-.03 4.26.58 6.07.64 1.9 1.71 3.45 3.16 4.62 1.45 1.17 3.19 1.87 5.18 2.1.44.05.88.07 1.3.07 1.52 0 2.96-.32 4.26-.96 1.67-.82 3.05-2.12 4.09-3.87.98-1.66 1.61-3.65 1.87-5.92l.15-1.29c.26-2.26.09-4.35-.5-6.19-.62-1.95-1.68-3.53-3.15-4.71-1.45-1.17-3.21-1.87-5.22-2.1-.44-.03-.86-.06-1.27-.06zm-.32 18.8c-.16 0-.33-.01-.51-.03-1.1-.12-1.82-.58-2.34-1.48-.61-1.07-.82-2.58-.6-4.48l.17-1.5c.23-1.83.76-3.21 1.58-4.07.59-.62 1.25-.91 2.09-.91.15 0 .31.01.47.03 1.13.13 1.86.57 2.36 1.43.6 1.02.79 2.53.57 4.5l-.17 1.51c-.24 1.9-.76 3.3-1.55 4.13-.56.6-1.22.87-2.07.87z" fill="#282525"/>
</svg>
